communes/6792.svg

<?xml version="1.0" encoding="UTF-8" standalone="no"?>
<!-- Created with Inkscape (http://www.inkscape.org/) -->

<svg
   xmlns:dc="http://purl.org/dc/elements/1.1/"
   xmlns:cc="http://creativecommons.org/ns#"
   xmlns:rdf="http://www.w3.org/1999/02/22-rdf-syntax-ns#"
   xmlns:svg="http://www.w3.org/2000/svg"
   xmlns="http://www.w3.org/2000/svg"
   xmlns:sodipodi="http://sodipodi.sourceforge.net/DTD/sodipodi-0.dtd"
   xmlns:inkscape="http://www.inkscape.org/namespaces/inkscape"
   version="1.0"
   width="208.86046"
   height="244.65999"
   id="svg2780"
   inkscape:version="0.92.5 (2060ec1f9f, 2020-04-08)"
   sodipodi:docname="Grandfontaine-blazon.svg">
  <metadata
     id="metadata27">
    <rdf:RDF>
      <cc:Work
         rdf:about="">
        <dc:format>image/svg+xml</dc:format>
        <dc:type
           rdf:resource="http://purl.org/dc/dcmitype/StillImage" />
        <dc:title></dc:title>
      </cc:Work>
    </rdf:RDF>
  </metadata>
  <sodipodi:namedview
     pagecolor="#ffffff"
     bordercolor="#666666"
     borderopacity="1"
     objecttolerance="10"
     gridtolerance="10"
     guidetolerance="10"
     inkscape:pageopacity="0"
     inkscape:pageshadow="2"
     inkscape:window-width="3287"
     inkscape:window-height="1417"
     id="namedview25"
     showgrid="false"
     inkscape:zoom="2"
     inkscape:cx="-76.118109"
     inkscape:cy="192.28791"
     inkscape:window-x="-8"
     inkscape:window-y="-8"
     inkscape:window-maximized="1"
     inkscape:current-layer="svg2780"
     inkscape:measure-start="104.255,149.787"
     inkscape:measure-end="104.255,126.383"
     showguides="true"
     inkscape:object-paths="true"
     inkscape:snap-intersection-paths="true" />
  <defs
     id="defs2782" />
  <path
     id="path4212-6"
     style="fill:#feeb00;fill-opacity:1;fill-rule:evenodd;stroke:#000000;stroke-width:1.99999988;stroke-linecap:butt;stroke-miterlimit:4;stroke-dashoffset:0;stroke-opacity:1"
     d="M 1.000033,149.10355 V 0.99999834 H 207.89951 V 149.10355 c 0,51.44535 -51.75421,94.56785 -103.46927,94.56785 -51.71506,0 -103.430207,-43.1225 -103.430207,-94.56785 z"
     inkscape:connector-curvature="0"
     sodipodi:nodetypes="sccscs" />
  <rect
     style="opacity:1;fill:#000000;fill-opacity:1;stroke:#000000;stroke-width:1;stroke-miterlimit:4;stroke-dasharray:none;stroke-dashoffset:4.57999992;stroke-opacity:1"
     id="rect8739"
     width="13.95161"
     height="28.377314"
     x="160.17343"
     y="34.556232" />
  <rect
     style="opacity:1;fill:#000000;fill-opacity:1;stroke:#000000;stroke-width:1;stroke-miterlimit:4;stroke-dasharray:none;stroke-dashoffset:4.57999992;stroke-opacity:1"
     id="rect8739-9"
     width="13.95161"
     height="28.377314"
     x="136.32603"
     y="58.556229" />
  <rect
     style="opacity:1;fill:#000000;fill-opacity:1;stroke:#000000;stroke-width:1;stroke-miterlimit:4;stroke-dasharray:none;stroke-dashoffset:4.57999992;stroke-opacity:1"
     id="rect8739-8"
     width="13.95161"
     height="28.377314"
     x="136.32603"
     y="10.556229" />
  <rect
     style="opacity:1;fill:#000000;fill-opacity:1;stroke:#000000;stroke-width:1;stroke-miterlimit:4;stroke-dasharray:none;stroke-dashoffset:4.57999992;stroke-opacity:1"
     id="rect8739-9-5"
     width="13.95161"
     height="28.377314"
     x="-197.97244"
     y="58.556229"
     transform="scale(-1,1)" />
  <rect
     style="opacity:1;fill:#000000;fill-opacity:1;stroke:#000000;stroke-width:1;stroke-miterlimit:4;stroke-dasharray:none;stroke-dashoffset:4.57999992;stroke-opacity:1"
     id="rect8739-8-7"
     width="13.95161"
     height="28.377314"
     x="-197.97244"
     y="10.556229"
     transform="scale(-1,1)" />
  <rect
     style="opacity:1;fill:#000000;fill-opacity:1;stroke:#000000;stroke-width:1;stroke-miterlimit:4;stroke-dasharray:none;stroke-dashoffset:4.57999992;stroke-opacity:1"
     id="rect8739-1"
     width="13.95161"
     height="28.377314"
     x="-48.687027"
     y="34.556232"
     transform="scale(-1,1)" />
  <rect
     style="opacity:1;fill:#000000;fill-opacity:1;stroke:#000000;stroke-width:1;stroke-miterlimit:4;stroke-dasharray:none;stroke-dashoffset:4.57999992;stroke-opacity:1"
     id="rect8739-9-53"
     width="13.95161"
     height="28.377314"
     x="-72.534424"
     y="58.556229"
     transform="scale(-1,1)" />
  <rect
     style="opacity:1;fill:#000000;fill-opacity:1;stroke:#000000;stroke-width:1;stroke-miterlimit:4;stroke-dasharray:none;stroke-dashoffset:4.57999992;stroke-opacity:1"
     id="rect8739-8-4"
     width="13.95161"
     height="28.377314"
     x="-72.534424"
     y="10.556218"
     transform="scale(-1,1)" />
  <rect
     style="opacity:1;fill:#000000;fill-opacity:1;stroke:#000000;stroke-width:1;stroke-miterlimit:4;stroke-dasharray:none;stroke-dashoffset:4.57999992;stroke-opacity:1"
     id="rect8739-9-5-4"
     width="13.95161"
     height="28.377314"
     x="10.888017"
     y="58.556229" />
  <rect
     style="opacity:1;fill:#000000;fill-opacity:1;stroke:#000000;stroke-width:1;stroke-miterlimit:4;stroke-dasharray:none;stroke-dashoffset:4.57999992;stroke-opacity:1"
     id="rect8739-8-7-6"
     width="13.95161"
     height="28.377314"
     x="10.888017"
     y="10.556218" />
  <rect
     style="opacity:1;fill:#000000;fill-opacity:1;stroke:#000000;stroke-width:1;stroke-miterlimit:4;stroke-dasharray:none;stroke-dashoffset:4.57999992;stroke-opacity:1"
     id="rect8739-5"
     width="13.95161"
     height="28.377314"
     x="160.17342"
     y="-202.42332"
     transform="scale(1,-1)" />
  <rect
     style="opacity:1;fill:#000000;fill-opacity:1;stroke:#000000;stroke-width:1;stroke-miterlimit:4;stroke-dasharray:none;stroke-dashoffset:4.57999992;stroke-opacity:1"
     id="rect8739-9-6"
     width="13.95161"
     height="28.377314"
     x="136.32603"
     y="-178.42332"
     transform="scale(1,-1)" />
  <rect
     style="opacity:1;fill:#000000;fill-opacity:1;stroke:#000000;stroke-width:1;stroke-miterlimit:4;stroke-dasharray:none;stroke-dashoffset:4.57999992;stroke-opacity:1"
     id="rect8739-8-9"
     width="13.95161"
     height="28.377314"
     x="136.32603"
     y="-226.42332"
     transform="scale(1,-1)" />
  <rect
     style="opacity:1;fill:#000000;fill-opacity:1;stroke:#000000;stroke-width:1;stroke-miterlimit:4;stroke-dasharray:none;stroke-dashoffset:4.57999992;stroke-opacity:1"
     id="rect8739-9-5-2"
     width="13.95161"
     height="28.377314"
     x="-197.97243"
     y="-178.42332"
     transform="scale(-1)" />
  <path
     style="opacity:1;fill:#000000;fill-opacity:1;stroke:#000000;stroke-width:1;stroke-miterlimit:4;stroke-dasharray:none;stroke-dashoffset:4.57999992;stroke-opacity:1"
     d="m -184.02082,-207.27172 v 9.22571 h -7.42834 z"
     id="rect8739-8-7-7"
     inkscape:connector-curvature="0"
     sodipodi:nodetypes="cccc"
     transform="scale(-1)" />
  <rect
     style="opacity:1;fill:#000000;fill-opacity:1;stroke:#000000;stroke-width:1;stroke-miterlimit:4;stroke-dasharray:none;stroke-dashoffset:4.57999992;stroke-opacity:1"
     id="rect8739-6"
     width="13.95161"
     height="28.377314"
     x="-48.68705"
     y="-202.42332"
     transform="scale(-1)" />
  <rect
     style="opacity:1;fill:#000000;fill-opacity:1;stroke:#000000;stroke-width:1;stroke-miterlimit:4;stroke-dasharray:none;stroke-dashoffset:4.57999992;stroke-opacity:1"
     id="rect8739-9-7"
     width="13.95161"
     height="28.377314"
     x="-72.534431"
     y="-178.42332"
     transform="scale(-1)" />
  <rect
     style="opacity:1;fill:#000000;fill-opacity:1;stroke:#000000;stroke-width:1;stroke-miterlimit:4;stroke-dasharray:none;stroke-dashoffset:4.57999992;stroke-opacity:1"
     id="rect8739-8-99"
     width="13.95161"
     height="28.377314"
     x="-72.534431"
     y="-226.42334"
     transform="scale(-1)" />
  <rect
     style="opacity:1;fill:#000000;fill-opacity:1;stroke:#000000;stroke-width:1;stroke-miterlimit:4;stroke-dasharray:none;stroke-dashoffset:4.57999992;stroke-opacity:1"
     id="rect8739-9-5-22"
     width="13.95161"
     height="28.377314"
     x="10.888037"
     y="-178.42332"
     transform="scale(1,-1)" />
  <path
     style="opacity:1;fill:#000000;fill-opacity:1;stroke:#000000;stroke-width:1;stroke-miterlimit:4;stroke-dasharray:none;stroke-dashoffset:4.57999992;stroke-opacity:1"
     d="M 1.000033,96.48978 H 82.43023 V 0.99999834 h 44 V 96.48978 h 81.43803 v 44 h -81.43803 v 100.64596 c -15.28915,3.14913 -30.043796,3.59416 -44,-1e-4 V 140.48978 H 1.000033 Z"
     id="path8849"
     inkscape:connector-curvature="0"
     sodipodi:nodetypes="ccccccccccccc" />
  <path
     style="opacity:1;fill:#000000;fill-opacity:1;stroke:#000000;stroke-width:1;stroke-miterlimit:4;stroke-dasharray:none;stroke-dashoffset:4.57999992;stroke-opacity:1"
     d="m 24.839639,207.27172 v -9.22571 h -7.42834 z"
     id="rect8739-8-7-7-2"
     inkscape:connector-curvature="0"
     sodipodi:nodetypes="cccc" />
</svg>

<?xml version="1.0" encoding="UTF-8"?>
<svg version="1.0" viewBox="0 0 208.86 244.66" xmlns="http://www.w3.org/2000/svg" xmlns:cc="http://creativecommons.org/ns#" xmlns:dc="http://purl.org/dc/elements/1.1/" xmlns:rdf="http://www.w3.org/1999/02/22-rdf-syntax-ns#">
<metadata>
<rdf:RDF>
<cc:Work rdf:about="">
<dc:format>image/svg+xml</dc:format>
<dc:type rdf:resource="http://purl.org/dc/dcmitype/StillImage"/>
<dc:title/>
</cc:Work>
</rdf:RDF>
</metadata>
<path d="m1 149.1v-148.1h206.9v148.1c0 51.445-51.754 94.568-103.47 94.568s-103.43-43.122-103.43-94.568z" fill="#feeb00" fill-rule="evenodd" stroke="#000" stroke-width="2"/>
<rect x="160.17" y="34.556" width="13.952" height="28.377" stroke="#000" stroke-dashoffset="4.58"/>
<rect x="136.33" y="58.556" width="13.952" height="28.377" stroke="#000" stroke-dashoffset="4.58"/>
<rect x="136.33" y="10.556" width="13.952" height="28.377" stroke="#000" stroke-dashoffset="4.58"/>
<rect transform="scale(-1,1)" x="-197.97" y="58.556" width="13.952" height="28.377" stroke="#000" stroke-dashoffset="4.58"/>
<rect transform="scale(-1,1)" x="-197.97" y="10.556" width="13.952" height="28.377" stroke="#000" stroke-dashoffset="4.58"/>
<rect transform="scale(-1,1)" x="-48.687" y="34.556" width="13.952" height="28.377" stroke="#000" stroke-dashoffset="4.58"/>
<rect transform="scale(-1,1)" x="-72.534" y="58.556" width="13.952" height="28.377" stroke="#000" stroke-dashoffset="4.58"/>
<rect transform="scale(-1,1)" x="-72.534" y="10.556" width="13.952" height="28.377" stroke="#000" stroke-dashoffset="4.58"/>
<rect x="10.888" y="58.556" width="13.952" height="28.377" stroke="#000" stroke-dashoffset="4.58"/>
<rect x="10.888" y="10.556" width="13.952" height="28.377" stroke="#000" stroke-dashoffset="4.58"/>
<rect transform="scale(1,-1)" x="160.17" y="-202.42" width="13.952" height="28.377" stroke="#000" stroke-dashoffset="4.58"/>
<rect transform="scale(1,-1)" x="136.33" y="-178.42" width="13.952" height="28.377" stroke="#000" stroke-dashoffset="4.58"/>
<rect transform="scale(1,-1)" x="136.33" y="-226.42" width="13.952" height="28.377" stroke="#000" stroke-dashoffset="4.58"/>
<rect transform="scale(-1)" x="-197.97" y="-178.42" width="13.952" height="28.377" stroke="#000" stroke-dashoffset="4.58"/>
<path transform="scale(-1)" d="m-184.02-207.27v9.2257h-7.4283z" stroke="#000" stroke-dashoffset="4.58"/>
<rect transform="scale(-1)" x="-48.687" y="-202.42" width="13.952" height="28.377" stroke="#000" stroke-dashoffset="4.58"/>
<rect transform="scale(-1)" x="-72.534" y="-178.42" width="13.952" height="28.377" stroke="#000" stroke-dashoffset="4.58"/>
<rect transform="scale(-1)" x="-72.534" y="-226.42" width="13.952" height="28.377" stroke="#000" stroke-dashoffset="4.58"/>
<rect transform="scale(1,-1)" x="10.888" y="-178.42" width="13.952" height="28.377" stroke="#000" stroke-dashoffset="4.58"/>
<path d="m1 96.49h81.43v-95.49h44v95.49h81.438v44h-81.438v100.65c-15.289 3.1491-30.044 3.5942-44-1e-4v-100.65h-81.43z" stroke="#000" stroke-dashoffset="4.58"/>
<path d="m24.84 207.27v-9.2257h-7.4283z" stroke="#000" stroke-dashoffset="4.58"/>
</svg>
